X:1
T:Title
%%score 1 ( 2 3 )
L:1/8
Q:1/4=100
M:4/4
K:Gb
V:1 treble nm="Grand Piano, Treble"
V:2 bass nm="Strings 1, Bass"
V:3 bass 
V:1
 z4 z2 DD | [DG]2 [DG]2 [DA]2 [FA]2 | [GB]6 [DG][DG] | [DA]2 [DA]2 [GB]4 | [Fd]6 [FB][FA] | %5
w: 1.~In~ the~|land~ of~ fade less~|day~ Lies~ the~|cit y~ four|square;~ It~ shall~|
 [EG]2 [EG]2 [DA]2 [DA]2 | [DB]4- [DB][DB][DB][DG] | [EG]4 [EG]4 | [FA]6 DD | %9
w: nev er~ pass~ a|way,~ * And~ there~ is~|no~ night~|there.~ * *|
 [DG]2 [DG]2 [Dd]2 [Fd]2 | [GB]6 [DG][DG] | [Ec]2 [Ec]2 [Ge]2 [Ge]2 | [FA]6 [FB][Fc] | %13
w: ||||
 [Gd]2 [GB]2 [DA]2 [_FG]2 | [Ec]4- [Ec][Ec][DB][DG] | [EG]4 [DF]4 | [DG]6 z2 |] %17
w: ||||
V:2
 z4 z2 [G,B,][G,B,] | [G,B,]2 [G,B,]2 [F,C]2 [D,C]2 | [G,D]6 [G,B,][G,B,] | [F,C]2 [F,C]2 [G,D]4 | %4
 [D,D]6 [D,D][D,C] | [E,B,]2 [E,,E,B,]2 [F,,F,D]2 [F,,F,C]2 | %6
 [G,,G,B,]4- [G,,G,B,][G,,G,][G,,G,][G,,B,] | [C,C]4 [C,A,]4 | [D,D]6 [D,C][D,C] | %9
 [G,B,]2 [G,B,]2 [F,A,]2 [D,A,]2 | [G,D]6 [G,B,][G,B,] | [C,G,]2 [C,G,]2 [C,C]2 [C,C]2 | %12
 [D,A,]6 [D,D][D,C] | [G,B,]2 [G,,B,]2 [A,,C]2 [B,,D]2 | [C,C]4- [C,C][C,G,][G,,G,][B,,G,] | %15
 z4 D2 z2 | [G,,G,B,]6 z2 |] %17
V:3
 x8 | x8 | x8 | x8 | x8 | x8 | x8 | x8 | x8 | x8 | x8 | x8 | x8 | x8 | x8 | [C,G,]4 D,2- [D,C]2 | %16
 x8 |] %17

